public/avatar/shoe/130.svg

<svg xmlns:xlink="http://www.w3.org/1999/xlink" height="38.3" width="36.05" xmlns="http://www.w3.org/2000/svg"><use height="29.3" transform="translate(9.3)" width="23.35" xlink:href="#a"/><defs><g id="a" fill-rule="evenodd"><path d="M2.85-14.65q4.65.6 5.6 2.35.5.8.35 3.45Q8.45-3.15 7.5 1l1.1 4.65q.2.75 0 2.3L8.35 9.1Q7.3 10.75 5.7 11.65l-1.2-.3q-2.95 2-3.95 2.25-6.25 1.8-11.95-.15-3-1-2.85-3.8l.05-.5-.3-1.5q.35-4.3 6.75-7.3.2-.35 1.45-3.85l.1-.3q-.45-2.85-.25-5.55.15-2.55 1.3-3.9 2.15-2.15 8-1.4" transform="translate(14.5 14.85)"/><path d="M-5.05-3.65q-1-6.95.75-8.75 1.8-1.9 6.5-1.35 4.4.5 5.3 2Q8.5-9.9 6.3 1l1.15 4.15q.4 2.55-.1 3.35l-6.9 4.35-5.15.25-6.45-.7q-2.25-.5-1.9-3.2-.9-2 1.1-4.45 1.75-2.1 4.5-3.4 1.2-1.7 2.4-5" fill="#2b282d" transform="translate(14.5 14.85)"/><path d="M7.45 5.65q.3 2.1-.15 2.85l-1.55 1.75-1.45-.15L0 12.6q-6.05 1.85-11.25-.2-2.2-1-1.95-3.2 4.25 3 13.15 1.15 4.3-1 7.5-4.7" fill="#3b393e" transform="translate(14.5 14.85)"/><path d="m2-6.35-6.3-.3v-4.45l5.75 1.05Q3.2-10.1 3.2-8.3q0 1.75-1.2 1.95" transform="translate(14.5 14.85)"/><path d="M1.5-9.3q.85 0 .95.9.1 1.3-.6 1.3l-5.55-.25v-2l.05-.75q3.35.85 5.15.8" fill="#3b393e" transform="translate(14.5 14.85)"/><path d="m1.45-1.9-5.9-.65.05-4.35 5.75 1q1.75-.1 1.6 2-.2 2.05-1.5 2" transform="translate(14.5 14.85)"/><path d="m1.35-5.15.7.3q.4.75-.2 1.75l-.4.45-5.2-.5q-.2-.75-.05-2.1l.05-.75q2.8.9 5.1.85" fill="#3b393e" transform="translate(14.5 14.85)"/><path d="m-6.45 1.45 1.8-3.7 5.6.95Q2.7-.9 1.7.75.7 2.45-.5 2q-1.5-.55-3.7-.6l-2.25.05" transform="translate(14.5 14.85)"/><path d="m.75-.55.5.3v.15q0 .55-.7 1.05-.5.5-.8.4Q-2.45.5-4.95.5l.75-1.85 4.95.8" fill="#3b393e" transform="translate(14.5 14.85)"/><path d="M-7.55 2.15-5.5 2q2.3-.05 3.5.6 3.05 1.65-2.2 2.05l-6.05-.3 2.7-2.2" transform="translate(14.5 14.85)"/><path d="m-7.3 2.85 4.9.4.25.15-2.1.5q-3.4.25-4.55 0l1.5-1.05" fill="#3b393e" transform="translate(14.5 14.85)"/><path d="M2.75-11.05q-7.2-.35-6.2-1.25l1.65-.6 4.6-.15q2.7.5 3.05 1.3.4.9-3.1.7M7.8 5l.05.95Q6.05 7.9 2.35 9.6q-4.1 1.8-7.9 1.85-3.4 0-5.95-.85l-1.8-.95V8.9l1.15.6 6.25.95Q2.55 11.1 7.8 5" transform="translate(14.5 14.85)"/><path d="M4.75-2.3 5-9.9q.95-.1 2.25-.9Q7.2-5.8 5.6.85q0 1.05.85 5.05l-3.35 2q-2.85 1.6-8 1.2.65-.75 5.95-2.35 2.4-.75 4-5.65.4-1.85-.3-3.4" fill="#1b191e" transform="translate(14.5 14.85)"/><path d="M-9.65 8.95q-2.9-.05-2.9-.6 0-2.65 2-2.95 2.55 3.45.9 3.55" fill="#3b393e" transform="translate(14.5 14.85)"/><path d="m-8.75 3.9 1.45-1.05 2.05-.15-2.2 1.3-1.3-.1m5.1-5.15L-4.05.7l-.9-.2.75-1.85.55.1M-3.75-6l.95.35q-.5 2.1-.4 2.6h-.5L-3.75-6m.1-4.1.85.2v2.6l-.9-.05.05-2.75" fill="#86888b" transform="translate(14.5 14.85)"/><path d="M-4.45-3.15q-.45 1.35-2 4.6l-4.95 2.8 4.1-3.1 2.05-4.75q-.45-3.9 0-6.45.55-2.6 2.55-3.3-1.6.6-1.95 2.7l.2 7.5m-6.5 8.5 1 .4q-.8-.15-2.6 2.6-.15-1 .75-2.15l.85-.85m18.45-.1-.7.6-.55-4.6 1.25 4m-20.75 4.6.85.35 1.45 2.4Q-12.5 12-13 10.9l-.25-1.05M7.5-11.75q.3 1.35-4.25 1.35 6.7-.6.7-3.15L5.6-13q1.75.7 1.9 1.25" fill="#86888b" transform="translate(14.5 14.85)"/></g></defs></svg>

<?xml version="1.0" encoding="UTF-8" standalone="no"?>
<svg xmlns:xlink="http://www.w3.org/1999/xlink" height="38.3px" width="36.05px" xmlns="http://www.w3.org/2000/svg">
  <g transform="matrix(1.0, 0.0, 0.0, 1.0, 23.8, 14.85)">
    <use height="29.3" transform="matrix(1.0, 0.0, 0.0, 1.0, -14.5, -14.85)" width="23.35" xlink:href="#shape0"/>
  </g>
  <defs>
    <g id="shape0" transform="matrix(1.0, 0.0, 0.0, 1.0, 14.5, 14.85)">
      <path d="M2.85 -14.65 Q7.5 -14.05 8.45 -12.3 8.95 -11.5 8.8 -8.85 8.45 -3.15 7.5 1.0 L8.6 5.65 Q8.8 6.4 8.6 7.95 L8.35 9.1 Q7.3 10.75 5.7 11.65 L4.5 11.35 Q1.55 13.35 0.55 13.6 -5.7 15.4 -11.4 13.45 -14.4 12.45 -14.25 9.65 L-14.2 9.15 -14.5 7.65 Q-14.15 3.35 -7.75 0.35 -7.55 0.0 -6.3 -3.5 L-6.2 -3.8 Q-6.65 -6.65 -6.45 -9.35 -6.3 -11.9 -5.15 -13.25 -3.0 -15.4 2.85 -14.65" fill="#000000" fill-rule="evenodd" stroke="none"/>
      <path d="M-5.05 -3.65 Q-6.05 -10.6 -4.3 -12.4 -2.5 -14.3 2.2 -13.75 6.6 -13.25 7.5 -11.75 8.5 -9.9 6.3 1.0 L7.45 5.15 Q7.85 7.7 7.35 8.5 L0.45 12.85 -4.7 13.1 -11.15 12.4 Q-13.4 11.9 -13.05 9.2 -13.95 7.2 -11.95 4.75 -10.2 2.65 -7.45 1.35 -6.25 -0.35 -5.05 -3.65" fill="#2b282d" fill-rule="evenodd" stroke="none"/>
      <path d="M7.45 5.65 Q7.75 7.75 7.3 8.5 L5.75 10.25 4.3 10.1 0.0 12.6 Q-6.05 14.45 -11.25 12.4 -13.45 11.4 -13.2 9.2 -8.95 12.2 -0.05 10.35 4.25 9.35 7.45 5.65" fill="#3b393e" fill-rule="evenodd" stroke="none"/>
      <path d="M2.0 -6.35 L-4.3 -6.65 -4.3 -11.1 1.45 -10.05 Q3.2 -10.1 3.2 -8.3 3.2 -6.55 2.0 -6.35" fill="#000000" fill-rule="evenodd" stroke="none"/>
      <path d="M1.5 -9.3 Q2.35 -9.3 2.45 -8.4 2.55 -7.1 1.85 -7.1 L-3.7 -7.35 -3.7 -9.35 -3.65 -10.1 Q-0.3 -9.25 1.5 -9.3" fill="#3b393e" fill-rule="evenodd" stroke="none"/>
      <path d="M1.45 -1.9 L-4.45 -2.55 -4.4 -6.9 1.35 -5.9 Q3.1 -6.0 2.95 -3.9 2.75 -1.85 1.45 -1.9" fill="#000000" fill-rule="evenodd" stroke="none"/>
      <path d="M1.35 -5.15 L2.05 -4.85 Q2.45 -4.1 1.85 -3.1 L1.45 -2.65 -3.75 -3.15 Q-3.95 -3.9 -3.8 -5.25 L-3.75 -6.0 Q-0.95 -5.1 1.35 -5.15" fill="#3b393e" fill-rule="evenodd" stroke="none"/>
      <path d="M-6.45 1.45 L-4.65 -2.25 0.95 -1.3 Q2.7 -0.9 1.7 0.75 0.7 2.45 -0.5 2.0 -2.0 1.45 -4.2 1.4 L-6.45 1.45" fill="#000000" fill-rule="evenodd" stroke="none"/>
      <path d="M0.75 -0.55 L1.25 -0.25 1.25 -0.1 Q1.25 0.45 0.55 0.95 0.05 1.45 -0.25 1.35 -2.45 0.5 -4.95 0.5 L-4.2 -1.35 0.75 -0.55" fill="#3b393e" fill-rule="evenodd" stroke="none"/>
      <path d="M-7.55 2.15 L-5.5 2.0 Q-3.2 1.95 -2.0 2.6 1.05 4.25 -4.2 4.65 L-10.25 4.35 -7.55 2.15" fill="#000000" fill-rule="evenodd" stroke="none"/>
      <path d="M-7.3 2.85 L-2.4 3.25 -2.15 3.4 -4.25 3.9 Q-7.65 4.15 -8.8 3.9 L-7.3 2.85" fill="#3b393e" fill-rule="evenodd" stroke="none"/>
      <path d="M2.75 -11.05 Q-4.45 -11.4 -3.45 -12.3 L-1.8 -12.9 2.8 -13.05 Q5.5 -12.55 5.85 -11.75 6.25 -10.85 2.75 -11.05" fill="#000000" fill-rule="evenodd" stroke="none"/>
      <path d="M7.8 5.0 L7.85 5.95 Q6.05 7.9 2.35 9.6 -1.75 11.4 -5.55 11.45 -8.95 11.45 -11.5 10.6 L-13.3 9.65 -13.3 8.9 -12.15 9.5 -5.9 10.45 Q2.55 11.1 7.8 5.0" fill="#000000" fill-rule="evenodd" stroke="none"/>
      <path d="M4.75 -2.3 L5.0 -9.9 Q5.95 -10.0 7.25 -10.8 7.2 -5.8 5.6 0.85 5.6 1.9 6.45 5.9 L3.1 7.9 Q0.25 9.5 -4.9 9.1 -4.25 8.35 1.05 6.75 3.45 6.0 5.05 1.1 5.45 -0.75 4.75 -2.3" fill="#1b191e" fill-rule="evenodd" stroke="none"/>
      <path d="M-9.65 8.95 Q-12.55 8.9 -12.55 8.35 -12.55 5.7 -10.55 5.4 -8.0 8.85 -9.65 8.95" fill="#3b393e" fill-rule="evenodd" stroke="none"/>
      <path d="M-8.75 3.9 L-7.3 2.85 -5.25 2.7 -7.45 4.0 -8.75 3.9" fill="#86888b" fill-rule="evenodd" stroke="none"/>
      <path d="M-3.65 -1.25 L-4.05 0.7 -4.95 0.5 -4.2 -1.35 -3.65 -1.25" fill="#86888b" fill-rule="evenodd" stroke="none"/>
      <path d="M-3.75 -6.0 L-2.8 -5.65 Q-3.3 -3.55 -3.2 -3.05 L-3.7 -3.05 -3.75 -6.0" fill="#86888b" fill-rule="evenodd" stroke="none"/>
      <path d="M-3.65 -10.1 L-2.8 -9.9 -2.8 -7.3 -3.7 -7.35 -3.65 -10.1" fill="#86888b" fill-rule="evenodd" stroke="none"/>
      <path d="M-4.45 -3.15 Q-4.9 -1.8 -6.45 1.45 L-11.4 4.25 -7.3 1.15 -5.25 -3.6 Q-5.7 -7.5 -5.25 -10.05 -4.7 -12.65 -2.7 -13.35 -4.3 -12.75 -4.65 -10.65 L-4.45 -3.15" fill="#86888b" fill-rule="evenodd" stroke="none"/>
      <path d="M-10.95 5.35 L-9.95 5.75 Q-10.75 5.6 -12.55 8.35 -12.7 7.35 -11.8 6.2 L-10.95 5.35" fill="#86888b" fill-rule="evenodd" stroke="none"/>
      <path d="M7.5 5.25 L6.8 5.85 6.25 1.25 7.5 5.25" fill="#86888b" fill-rule="evenodd" stroke="none"/>
      <path d="M-13.25 9.85 L-12.4 10.2 -10.95 12.6 Q-12.5 12.0 -13.0 10.9 L-13.25 9.85" fill="#86888b" fill-rule="evenodd" stroke="none"/>
      <path d="M7.5 -11.75 Q7.8 -10.4 3.25 -10.4 9.95 -11.0 3.95 -13.55 L5.6 -13.0 Q7.35 -12.3 7.5 -11.75" fill="#86888b" fill-rule="evenodd" stroke="none"/>
    </g>
  </defs>
</svg>
